!!!OTL: BALD PRANGT DEN MORGEN ZU VERKUENDEN
!!!ARE: Europa, Mitteleuropa, Deutschland
!!!SCT: F0349
!!!YEM: Copyright 1995, estate of Helmut Schaffrath.
**kern
*ICvox
*Ivox
*M4/4
*k[b-e-a-]
*E-:
{4B-
=1
4.B-
8d
8.e-
16d
8.c
16f
=2
4e-
4d
4r}
{4e-
=3
4e-
8c
8f
8f
8e-
8e-
8d
=4
4d
4e-
4r}
{4e-
=5
4.e-
8c
8.d
16c
8.d
16e-
=6
4d
4c
4r}
{4f
=7
8f
8e-
8g
8e-
8e-
8d
8e-
8c
=8
4c
4B-
4r}
{4B-
=9
4.B-
8c
8d
8e-
8f
8e-
=10
8e-
8d
4.d}
{16e-
16d
8c
8B-
=11
4B-
8e-
8B-
8B-
8A-
8A-
8G
=12
8.B-
16G
4F
4r}
{4B-
=13
4.B-
8d
8.e-
16d
8.c
16f
=14
4e-
4d
4r}
{4e-
=15
8.c
16d
8.e-
16f
4e-
4d
=16
2f
4r}
{4f
=17
8.g
16d
8.e-
16f
4e-
4d
=18
4e-
2r}
==
!!!AGN: Jugend - Lied, Tageszeiten, Morgen
!!!ONB: ESAC (Essen Associative Code) Database: FINK
!!!AMT: simple quadruple
!!!AIN: vox
!!!EED: Helmut Schaffrath
!!!EEV: 1.0
*-
